X:1
T: Karen Oakley
C: Bruce Shawyer
R:Strathspey
Q:128
K:C
M:4/4
L:1/16
|:G2|c3d c3G Ac3 G3c|Gc3 c3e d6G2|c3d c3G Ac3 G3c|Gc3 Bd3 c6G2|
c3d c3G Ac3 G3c|Gc3 c3e d6G2|c3d c3G Ac3 G3c|Gc3 Bd3|c6e2|
g3e c3e gfed c3e|g3e ce3 d6e2|g3e c3e d3c Ac3|Gc3 Bd3 c6e2|
g3e c3e gfed c3e|g3e ce3 d6e2|g3e c3e d3c Ac3|Gc3 Bd3 c6:|
